_includes/icons/ios-registered-trademark.svg

<svg fill="#666" height="50" viewBox="0 0 50 50" width="50" xmlns="http://www.w3.org/2000/svg"><path d="m25 2c-12.690705 0-23 10.309295-23 23s10.309295 23 23 23 23-10.309295 23-23-10.309295-23-23-23zm0 2c11.609824 0 21 9.390176 21 21s-9.390176 21-21 21-21-9.390176-21-21 9.390176-21 21-21zm-8 7v2l-1-1v16 10a1.0001 1.0001 0 0 0 1 1h4a1.0001 1.0001 0 0 0 1-1v-9h2.03125.408203l5.826172 9.521484a1.0001 1.0001 0 0 0 .853516.478516h4.880859a1.0001 1.0001 0 0 0 .841797-1.541016l-6.228516-9.6875c1.163171-.480562 2.314316-1.098557 3.259766-2.099609 1.270702-1.345432 2.126953-3.266487 2.126953-5.75 0-2.219383-.69035-3.989778-1.761719-5.285156-1.071368-1.295379-2.483007-2.11475-3.886719-2.642578-2.807423-1.055657-5.715607-.994141-6.320312-.994141zm1 2h6.03125c.686295 0 3.263361-.01791 5.617188.867188 1.176912.442546 2.265415 1.097706 3.048828 2.044921.783412.947215 1.302734 2.189649 1.302734 4.009766 0 2.043487-.637983 3.377386-1.582031 4.376953-.944048.999568-2.248204 1.652413-3.580078 2.056641a1.0001 1.0001 0 0 0 -.550782 1.498047l5.88086 9.146484h-2.488281l-5.826172-9.521484a1.0001 1.0001 0 0 0 -.853516-.478516h-.96875-3.03125a1.0001 1.0001 0 0 0 -1 1v9h-2v-9zm3 2a1.0001 1.0001 0 0 0 -1 1v8a1.0001 1.0001 0 0 0 1 1h4.515625c.363459 0 1.873987.02032 3.380859-.574219 1.506873-.594539 3.103516-2.052673 3.103516-4.464843 0-1.20943-.38836-2.226289-.996094-2.960938-.607733-.734649-1.393774-1.185514-2.152344-1.470703-1.517138-.570378-3.054264-.529297-3.335937-.529297zm1 2h3.515625c.363327 0 1.569201.0025 2.632813.402344.531804.199936.994717.486539 1.314453.873047.319735.386507.537109.875475.537109 1.685547 0 1.626827-.78231 2.187805-1.835938 2.603515-1.053627.415711-2.285896.435547-2.648437.435547h-3.515625z"/></svg>

<svg xmlns="http://www.w3.org/2000/svg" viewBox="0 0 50 50" width="50" height="50" fill="#666"><path style="line-height:normal;text-indent:0;text-align:start;text-decoration-line:none;text-decoration-style:solid;text-decoration-color:#000;text-transform:none;block-progression:tb;isolation:auto;mix-blend-mode:normal" d="M 25 2 C 12.309295 2 2 12.309295 2 25 C 2 37.690705 12.309295 48 25 48 C 37.690705 48 48 37.690705 48 25 C 48 12.309295 37.690705 2 25 2 z M 25 4 C 36.609824 4 46 13.390176 46 25 C 46 36.609824 36.609824 46 25 46 C 13.390176 46 4 36.609824 4 25 C 4 13.390176 13.390176 4 25 4 z M 17 11 L 17 13 L 16 12 L 16 28 L 16 38 A 1.0001 1.0001 0 0 0 17 39 L 21 39 A 1.0001 1.0001 0 0 0 22 38 L 22 29 L 24.03125 29 L 24.439453 29 L 30.265625 38.521484 A 1.0001 1.0001 0 0 0 31.119141 39 L 36 39 A 1.0001 1.0001 0 0 0 36.841797 37.458984 L 30.613281 27.771484 C 31.776452 27.290922 32.927597 26.672927 33.873047 25.671875 C 35.143749 24.326443 36 22.405388 36 19.921875 C 36 17.702492 35.30965 15.932097 34.238281 14.636719 C 33.166913 13.34134 31.755274 12.521969 30.351562 11.994141 C 27.544139 10.938484 24.635955 11 24.03125 11 L 17 11 z M 18 13 L 24.03125 13 C 24.717545 13 27.294611 12.98209 29.648438 13.867188 C 30.82535 14.309734 31.913853 14.964894 32.697266 15.912109 C 33.480678 16.859324 34 18.101758 34 19.921875 C 34 21.965362 33.362017 23.299261 32.417969 24.298828 C 31.473921 25.298396 30.169765 25.951241 28.837891 26.355469 A 1.0001 1.0001 0 0 0 28.287109 27.853516 L 34.167969 37 L 31.679688 37 L 25.853516 27.478516 A 1.0001 1.0001 0 0 0 25 27 L 24.03125 27 L 21 27 A 1.0001 1.0001 0 0 0 20 28 L 20 37 L 18 37 L 18 28 L 18 13 z M 21 15 A 1.0001 1.0001 0 0 0 20 16 L 20 24 A 1.0001 1.0001 0 0 0 21 25 L 25.515625 25 C 25.879084 25 27.389612 25.02032 28.896484 24.425781 C 30.403357 23.831242 32 22.373108 32 19.960938 C 32 18.751508 31.61164 17.734649 31.003906 17 C 30.396173 16.265351 29.610132 15.814486 28.851562 15.529297 C 27.334424 14.958919 25.797298 15 25.515625 15 L 21 15 z M 22 17 L 25.515625 17 C 25.878952 17 27.084826 17.0025 28.148438 17.402344 C 28.680242 17.60228 29.143155 17.888883 29.462891 18.275391 C 29.782626 18.661898 30 19.150866 30 19.960938 C 30 21.587765 29.21769 22.148743 28.164062 22.564453 C 27.110435 22.980164 25.878166 23 25.515625 23 L 22 23 L 22 17 z"/></svg>
